X:81
T:Downfall of Paris
O:No 81 Wm Clarke MS  Feltwell, Norfolk
I:abc2nwc
M:2/4
L:1/16
K:C
c2cd c2cd|c2cd fedc|d2de d2de|d2de gfed|
e2ef e2ef|e2ef agfe|d2de d2de|d2de cBAG|
c2cd c2cd|c2cd fedc|d2de d2de|d2de gfed|
e2ef g2f2|e2ef g2f2|e2ef d2de|c2c2 c2 z2:|
|:g4g4|g2e2 a2g2|f2fe f2fe|f2fe f4|
f4f4|f2d2 g2f2|e2ed e2ed|e2ed e2d2|
c2cd c2cd|c2cd fedc|d2de d2de|d2de gfed|
e2ef g2f2|e2ef g2f2|e2ef d2de|c2c2 c2 z2:|
|:gabc' bagf|efga gfed|c2c2 d2d2|e2e2 d4|
gabc' bagf|efga gfed|c2cd e2d2|c2c2 c2 z2:|
|:B2c2 d2e2|f2e2 d2c2|B2c2 d2e2|f2e2 d2 z2|
gabc' bagf|efga gfed|c2cd e2d2|c2c2 c2 z2:|


